X: 10763
T: COLONEL HOPE'S QUICK STEP
%R: quick-step, march
B: W. Hamilton "Universal Tune-Book" Vol. 1 Glasgow 1844 p.76 #3
S: http://imslp.org/wiki/Hamilton's_Universal_Tune-Book_(Various)
Z: 2016 John Chambers <jc:trillian.mit.edu>
M: 2/4
L: 1/16
K: D
% - - - - - - - - - - - - - - - - - - - - - - - - -
A2 !segno!|\
d2a2a2g2 | Tf4 d2f2 | (g2e2)(f2d2) | (dc)BA A2Bc |\
d2a2a2g2 | Tf4 d2A2 | B2ge d2c2 | "^Fin."d4 d2 H:|\
f2 |\
e2f2g2f2 | e2a2f2d2 | (edcd) (efgf) | (edef) e2f2 |
e3fg2f2 | e4 fedc | B2f2e2^G2 | A4 z4 !segno!|:\
"^Minore."f2 |\
B2c2d2e2 | f4 (d2B2) | g2f2e2d2 | (edcd) c2f2 |\
B2c2d2e2 | f2(gf) e2g2 | fege d2Tc2 |[1 B6 :|[2 B^ABc Bdce !segno!|]
% - - - - - - - - - - - - - - - - - - - - - - - - -

%%sep 1 1 500
%%sep 1 1 500

